icons/svg/water/waterfall.svg

<?xml version="1.0" encoding="UTF-8" standalone="no"?>
<!-- Created with Inkscape (http://www.inkscape.org/) -->

<svg
   xmlns:dc="http://purl.org/dc/elements/1.1/"
   xmlns:cc="http://creativecommons.org/ns#"
   xmlns:rdf="http://www.w3.org/1999/02/22-rdf-syntax-ns#"
   xmlns:svg="http://www.w3.org/2000/svg"
   xmlns="http://www.w3.org/2000/svg"
   xmlns:sodipodi="http://sodipodi.sourceforge.net/DTD/sodipodi-0.dtd"
   xmlns:inkscape="http://www.inkscape.org/namespaces/inkscape"
   version="1.0"
   width="580"
   height="580"
   id="svg2"
   sodipodi:version="0.32"
   inkscape:version="0.91 r"
   sodipodi:docname="waterfall.svg"
   inkscape:output_extension="org.inkscape.output.svg.inkscape">
  <metadata
     id="metadata2975">
    <rdf:RDF>
      <cc:Work
         rdf:about="">
        <dc:format>image/svg+xml</dc:format>
        <dc:type
           rdf:resource="http://purl.org/dc/dcmitype/StillImage" />
        <dc:title />
      </cc:Work>
    </rdf:RDF>
  </metadata>
  <sodipodi:namedview
     inkscape:window-height="1004"
     inkscape:window-width="1920"
     inkscape:pageshadow="2"
     inkscape:pageopacity="0.0"
     guidetolerance="10.0"
     gridtolerance="10.0"
     objecttolerance="10.0"
     borderopacity="1.0"
     bordercolor="#666666"
     pagecolor="#ffffff"
     id="base"
     inkscape:zoom="0.32"
     inkscape:cx="761.97371"
     inkscape:cy="390.55887"
     inkscape:window-x="1680"
     inkscape:window-y="0"
     inkscape:current-layer="svg2"
     showgrid="false"
     inkscape:window-maximized="1" />
  <defs
     id="defs4">
    <inkscape:perspective
       sodipodi:type="inkscape:persp3d"
       inkscape:vp_x="0 : 290 : 1"
       inkscape:vp_y="0 : 1000 : 0"
       inkscape:vp_z="580 : 290 : 1"
       inkscape:persp3d-origin="290 : 193.33333 : 1"
       id="perspective2441" />
    <inkscape:perspective
       id="perspective2466"
       inkscape:persp3d-origin="372.04724 : 350.78739 : 1"
       inkscape:vp_z="744.09448 : 526.18109 : 1"
       inkscape:vp_y="0 : 1000 : 0"
       inkscape:vp_x="0 : 526.18109 : 1"
       sodipodi:type="inkscape:persp3d" />
    <inkscape:perspective
       id="perspective3333"
       inkscape:persp3d-origin="372.04724 : 350.78739 : 1"
       inkscape:vp_z="744.09448 : 526.18109 : 1"
       inkscape:vp_y="0 : 1000 : 0"
       inkscape:vp_x="0 : 526.18109 : 1"
       sodipodi:type="inkscape:persp3d" />
    <inkscape:perspective
       id="perspective3401"
       inkscape:persp3d-origin="372.04724 : 350.78739 : 1"
       inkscape:vp_z="744.09448 : 526.18109 : 1"
       inkscape:vp_y="0 : 1000 : 0"
       inkscape:vp_x="0 : 526.18109 : 1"
       sodipodi:type="inkscape:persp3d" />
    <inkscape:perspective
       id="perspective3464"
       inkscape:persp3d-origin="372.04724 : 350.78739 : 1"
       inkscape:vp_z="744.09448 : 526.18109 : 1"
       inkscape:vp_y="0 : 1000 : 0"
       inkscape:vp_x="0 : 526.18109 : 1"
       sodipodi:type="inkscape:persp3d" />
    <inkscape:perspective
       id="perspective3581"
       inkscape:persp3d-origin="225 : 150 : 1"
       inkscape:vp_z="450 : 225 : 1"
       inkscape:vp_y="0 : 1000 : 0"
       inkscape:vp_x="0 : 225 : 1"
       sodipodi:type="inkscape:persp3d" />
    <inkscape:perspective
       id="perspective4312"
       inkscape:persp3d-origin="225 : 150 : 1"
       inkscape:vp_z="450 : 225 : 1"
       inkscape:vp_y="0 : 1000 : 0"
       inkscape:vp_x="0 : 225 : 1"
       sodipodi:type="inkscape:persp3d" />
    <inkscape:perspective
       id="perspective8860"
       inkscape:persp3d-origin="372.04724 : 350.78739 : 1"
       inkscape:vp_z="744.09448 : 526.18109 : 1"
       inkscape:vp_y="0 : 1000 : 0"
       inkscape:vp_x="0 : 526.18109 : 1"
       sodipodi:type="inkscape:persp3d" />
    <inkscape:perspective
       id="perspective8887"
       inkscape:persp3d-origin="372.04724 : 350.78739 : 1"
       inkscape:vp_z="744.09448 : 526.18109 : 1"
       inkscape:vp_y="0 : 1000 : 0"
       inkscape:vp_x="0 : 526.18109 : 1"
       sodipodi:type="inkscape:persp3d" />
    <inkscape:perspective
       sodipodi:type="inkscape:persp3d"
       inkscape:vp_x="0 : 16 : 1"
       inkscape:vp_y="0 : 1000 : 0"
       inkscape:vp_z="32 : 16 : 1"
       inkscape:persp3d-origin="16 : 10.666667 : 1"
       id="perspective4904" />
    <inkscape:perspective
       sodipodi:type="inkscape:persp3d"
       inkscape:vp_x="0 : 6 : 1"
       inkscape:vp_y="0 : 1000 : 0"
       inkscape:vp_z="12 : 6 : 1"
       inkscape:persp3d-origin="6 : 4 : 1"
       id="perspective4668" />
    <inkscape:perspective
       sodipodi:type="inkscape:persp3d"
       inkscape:vp_x="0 : 526.18109 : 1"
       inkscape:vp_y="0 : 1000 : 0"
       inkscape:vp_z="744.09448 : 526.18109 : 1"
       inkscape:persp3d-origin="372.04724 : 350.78739 : 1"
       id="perspective4471" />
    <symbol
       id="symbol-university"
       viewBox="244.5 110 489 219.9">
      <path
         d="M79,43l57,119c0,0,21-96,104-96s124,106,124,106l43-133l82-17L0,17L79,43z"
         id="path4460" />
      <path
         fill="none"
         stroke="#000000"
         stroke-width="20"
         d="M94,176l-21,39"
         id="path4462" />
      <path
         d="M300,19c0,10.5-22.6,19-50.5,19S199,29.5,199,19s22.6-19,50.5-19S300,8.5,300,19z"
         id="path4464" />
      <path
         ill="none"
         stroke="#000000"
         stroke-width="20"
         d="M112,216l-16-38L64,88c0,0-9-8-4-35s16-24,16-24"
         id="path4466" />
    </symbol>
    <inkscape:perspective
       sodipodi:type="inkscape:persp3d"
       inkscape:vp_x="0 : 30 : 1"
       inkscape:vp_y="0 : 1000 : 0"
       inkscape:vp_z="60 : 30 : 1"
       inkscape:persp3d-origin="30 : 20 : 1"
       id="perspective3452" />
    <inkscape:perspective
       id="perspective9479"
       inkscape:persp3d-origin="290 : 193.33333 : 1"
       inkscape:vp_z="580 : 290 : 1"
       inkscape:vp_y="0 : 1000 : 0"
       inkscape:vp_x="0 : 290 : 1"
       sodipodi:type="inkscape:persp3d" />
    <inkscape:perspective
       id="perspective9690"
       inkscape:persp3d-origin="372.04724 : 350.78739 : 1"
       inkscape:vp_z="744.09448 : 526.18109 : 1"
       inkscape:vp_y="0 : 1000 : 0"
       inkscape:vp_x="0 : 526.18109 : 1"
       sodipodi:type="inkscape:persp3d" />
    <inkscape:perspective
       sodipodi:type="inkscape:persp3d"
       inkscape:vp_x="0 : 290 : 1"
       inkscape:vp_y="0 : 1000 : 0"
       inkscape:vp_z="580 : 290 : 1"
       inkscape:persp3d-origin="290 : 193.33333 : 1"
       id="perspective9819" />
    <inkscape:perspective
       id="perspective9817"
       inkscape:persp3d-origin="30 : 20 : 1"
       inkscape:vp_z="60 : 30 : 1"
       inkscape:vp_y="0 : 1000 : 0"
       inkscape:vp_x="0 : 30 : 1"
       sodipodi:type="inkscape:persp3d" />
    <symbol
       viewBox="244.5 110 489 219.9"
       id="symbol9807">
      <path
         id="path9809"
         d="M79,43l57,119c0,0,21-96,104-96s124,106,124,106l43-133l82-17L0,17L79,43z" />
      <path
         id="path9811"
         d="M94,176l-21,39"
         stroke-width="20"
         stroke="#000000"
         fill="none" />
      <path
         id="path9813"
         d="M300,19c0,10.5-22.6,19-50.5,19S199,29.5,199,19s22.6-19,50.5-19S300,8.5,300,19z" />
      <path
         id="path9815"
         d="M112,216l-16-38L64,88c0,0-9-8-4-35s16-24,16-24"
         stroke-width="20"
         stroke="#000000"
         ill="none" />
    </symbol>
    <inkscape:perspective
       id="perspective9805"
       inkscape:persp3d-origin="372.04724 : 350.78739 : 1"
       inkscape:vp_z="744.09448 : 526.18109 : 1"
       inkscape:vp_y="0 : 1000 : 0"
       inkscape:vp_x="0 : 526.18109 : 1"
       sodipodi:type="inkscape:persp3d" />
    <inkscape:perspective
       id="perspective9803"
       inkscape:persp3d-origin="6 : 4 : 1"
       inkscape:vp_z="12 : 6 : 1"
       inkscape:vp_y="0 : 1000 : 0"
       inkscape:vp_x="0 : 6 : 1"
       sodipodi:type="inkscape:persp3d" />
    <inkscape:perspective
       id="perspective9801"
       inkscape:persp3d-origin="16 : 10.666667 : 1"
       inkscape:vp_z="32 : 16 : 1"
       inkscape:vp_y="0 : 1000 : 0"
       inkscape:vp_x="0 : 16 : 1"
       sodipodi:type="inkscape:persp3d" />
    <inkscape:perspective
       sodipodi:type="inkscape:persp3d"
       inkscape:vp_x="0 : 526.18109 : 1"
       inkscape:vp_y="0 : 1000 : 0"
       inkscape:vp_z="744.09448 : 526.18109 : 1"
       inkscape:persp3d-origin="372.04724 : 350.78739 : 1"
       id="perspective9799" />
    <inkscape:perspective
       sodipodi:type="inkscape:persp3d"
       inkscape:vp_x="0 : 526.18109 : 1"
       inkscape:vp_y="0 : 1000 : 0"
       inkscape:vp_z="744.09448 : 526.18109 : 1"
       inkscape:persp3d-origin="372.04724 : 350.78739 : 1"
       id="perspective9797" />
    <inkscape:perspective
       sodipodi:type="inkscape:persp3d"
       inkscape:vp_x="0 : 225 : 1"
       inkscape:vp_y="0 : 1000 : 0"
       inkscape:vp_z="450 : 225 : 1"
       inkscape:persp3d-origin="225 : 150 : 1"
       id="perspective9795" />
    <inkscape:perspective
       sodipodi:type="inkscape:persp3d"
       inkscape:vp_x="0 : 225 : 1"
       inkscape:vp_y="0 : 1000 : 0"
       inkscape:vp_z="450 : 225 : 1"
       inkscape:persp3d-origin="225 : 150 : 1"
       id="perspective9793" />
    <inkscape:perspective
       sodipodi:type="inkscape:persp3d"
       inkscape:vp_x="0 : 526.18109 : 1"
       inkscape:vp_y="0 : 1000 : 0"
       inkscape:vp_z="744.09448 : 526.18109 : 1"
       inkscape:persp3d-origin="372.04724 : 350.78739 : 1"
       id="perspective9791" />
    <inkscape:perspective
       sodipodi:type="inkscape:persp3d"
       inkscape:vp_x="0 : 526.18109 : 1"
       inkscape:vp_y="0 : 1000 : 0"
       inkscape:vp_z="744.09448 : 526.18109 : 1"
       inkscape:persp3d-origin="372.04724 : 350.78739 : 1"
       id="perspective9789" />
    <inkscape:perspective
       sodipodi:type="inkscape:persp3d"
       inkscape:vp_x="0 : 526.18109 : 1"
       inkscape:vp_y="0 : 1000 : 0"
       inkscape:vp_z="744.09448 : 526.18109 : 1"
       inkscape:persp3d-origin="372.04724 : 350.78739 : 1"
       id="perspective9787" />
    <inkscape:perspective
       sodipodi:type="inkscape:persp3d"
       inkscape:vp_x="0 : 526.18109 : 1"
       inkscape:vp_y="0 : 1000 : 0"
       inkscape:vp_z="744.09448 : 526.18109 : 1"
       inkscape:persp3d-origin="372.04724 : 350.78739 : 1"
       id="perspective9785" />
    <inkscape:perspective
       id="perspective9783"
       inkscape:persp3d-origin="290 : 193.33333 : 1"
       inkscape:vp_z="580 : 290 : 1"
       inkscape:vp_y="0 : 1000 : 0"
       inkscape:vp_x="0 : 290 : 1"
       sodipodi:type="inkscape:persp3d" />
    <defs
       id="defs48974" />
    <sodipodi:namedview
       pagecolor="#ffffff"
       inkscape:zoom="0.61399264"
       inkscape:window-y="26"
       inkscape:window-x="0"
       inkscape:window-width="1012"
       inkscape:window-height="739"
       inkscape:pageshadow="2"
       inkscape:pageopacity="0.0"
       inkscape:cy="250.37448"
       inkscape:cx="475.26707"
       id="namedview4258"
       borderopacity="1.0"
       bordercolor="#666666" />
    <inkscape:perspective
       id="perspective11483"
       inkscape:persp3d-origin="100 : 66.666667 : 1"
       inkscape:vp_z="200 : 100 : 1"
       inkscape:vp_y="0 : 1000 : 0"
       inkscape:vp_x="0 : 100 : 1"
       sodipodi:type="inkscape:persp3d" />
    <linearGradient
       id="linearGradient2936">
      <stop
         style="stop-color:#8acf6b;stop-opacity:1.0000000;"
         offset="0.0000000"
         id="stop2938" />
      <stop
         style="stop-color:#368912;stop-opacity:1.0000000;"
         offset="1.0000000"
         id="stop2940" />
    </linearGradient>
    <linearGradient
       id="linearGradient2952">
      <stop
         style="stop-color:#c0d50d;stop-opacity:1;"
         offset="0"
         id="stop2954" />
      <stop
         style="stop-color:#eef2cd;stop-opacity:1.0000000;"
         offset="1.0000000"
         id="stop2956" />
    </linearGradient>
    <inkscape:perspective
       id="perspective34"
       inkscape:persp3d-origin="372.04724 : 350.78739 : 1"
       inkscape:vp_z="744.09448 : 526.18109 : 1"
       inkscape:vp_y="0 : 1000 : 0"
       inkscape:vp_x="0 : 526.18109 : 1"
       sodipodi:type="inkscape:persp3d" />
    <inkscape:perspective
       id="perspective12300"
       inkscape:persp3d-origin="372.04724 : 350.78739 : 1"
       inkscape:vp_z="744.09448 : 526.18109 : 1"
       inkscape:vp_y="0 : 1000 : 0"
       inkscape:vp_x="0 : 526.18109 : 1"
       sodipodi:type="inkscape:persp3d" />
    <inkscape:perspective
       id="perspective3653"
       inkscape:persp3d-origin="290 : 193.33333 : 1"
       inkscape:vp_z="580 : 290 : 1"
       inkscape:vp_y="0 : 1000 : 0"
       inkscape:vp_x="0 : 290 : 1"
       sodipodi:type="inkscape:persp3d" />
  </defs>
  <g
     id="g1327">
    <path
       d="M 66.275,1.768 C 24.94,1.768 1.704,23.139 1.704,66.804 L 1.704,516.927 C 1.704,557.771 22.599,579.156 63.896,579.156 L 515.92,579.156 C 557.227,579.156 578.149,558.841 578.149,516.927 L 578.149,66.804 C 578.149,24.203 557.227,1.768 514.628,1.768 C 514.624,1.768 66.133,1.625 66.275,1.768 z "
       style="fill:#111;stroke:#eee;stroke-width:3.40799999"
       id="path1329" />
  </g>
  <path
     style="color:#000000;display:inline;overflow:visible;visibility:visible;fill:#ffffff;fill-opacity:1;fill-rule:nonzero;stroke:none;stroke-width:31.39999962;marker:none;enable-background:accumulate"
     d="m 334.62833,69.557827 -3.21089,-10.848529 c 0,0 -129.14652,9.430008 -152.13374,17.931721 87.67981,41.547421 146.7008,241.770211 150.81005,337.608981 0.14726,3.3993 -1.10671,6.83595 -3.40625,9.34375 -2.29954,2.5078 -5.63194,4.04024 -9.03125,4.1875 -3.3993,0.14726 -6.83595,-1.07547 -9.34375,-3.375 -2.5078,-2.29954 -4.04024,-5.63195 -4.1875,-9.03125 C 297.50778,249.95758 229.17674,143.30935 167.10513,79.651882 147.73569,82.757701 57.147572,94.019698 31.40625,103.625 l -2.96875,15.0625 c 0.248301,2.23471 98.62653,-1.65451 111.07812,0.51562 4.46625,0.77841 7.54292,3.34002 8.54688,4.32813 0,0 104.3203,103.44307 89.15625,287.9375 -0.18452,3.16457 -1.70146,6.23271 -4.09375,8.3125 -2.39229,2.07978 -5.62177,3.1324 -8.78125,2.875 -3.15948,-0.25741 -6.19466,-1.81041 -8.21875,-4.25 -2.02409,-2.4396 -3.01766,-5.72229 -2.6875,-8.875 0.49655,-6.04135 0.85187,-11.9699 1.09375,-17.8125 -18.93086,3.19005 -32.27607,7.18926 -40.1875,11.28125 -9.37146,4.84716 -10.3125,7.48719 -10.3125,11.15625 0,0.13977 -0.005,1.22327 2.78125,3.78125 2.78655,2.55798 8.00836,5.80964 15.15625,8.84375 14.29579,6.06822 36.07451,11.43889 61.9375,14.71875 3.13829,0.3024 6.12511,1.91233 8.09375,4.375 1.96864,2.46267 2.89619,5.74717 2.5,8.875 -0.39619,3.12783 -2.10451,6.0747 -4.625,7.96875 -2.52049,1.89405 -5.82293,2.70838 -8.9375,2.21875 -27.3452,-3.46782 -50.68502,-8.94562 -68.1875,-16.375 -8.75124,-3.71469 -16.09396,-7.88323 -21.90625,-13.21875 -5.81229,-5.33552 -10.4375,-12.65093 -10.4375,-21.1875 0,-13.26282 9.37037,-25.02691 23.09375,-32.125 12.37085,-6.39853 28.9656,-10.87202 51.34375,-14.3125 -0.10199,-6.65533 -0.34766,-13.18743 -0.75,-19.5625 -45.89204,5.26044 -81.62523,15.0217 -105.4375,27.28125 -25.818769,13.29258 -36.46875,27.95651 -36.46875,43.03125 0,7.95528 4.465154,16.5289 15.34375,25.75 10.878596,9.2211 27.73983,18.29289 49.0625,25.9375 42.64534,15.28922 102.92886,25.0625 169.5,25.0625 66.57116,0 126.82341,-9.77328 169.46875,-25.0625 21.32267,-7.64461 38.1839,-16.7164 49.0625,-25.9375 10.8786,-9.2211 15.34375,-17.79472 15.34375,-25.75 0,-5.2569 -2.57539,-11.39358 -9.09375,-18.4375 -6.51836,-7.04392 -16.74381,-14.51672 -29.8125,-21.4375 -23.25672,-12.31604 -55.33797,-22.99851 -91.03125,-30 1.20572,7.1849 2.31928,14.57649 3.375,22.15625 13.81375,3.88321 26.23968,8.75832 36.21875,14.5625 5.76728,3.35446 10.75672,6.9949 14.78125,11.5 4.02453,4.5051 7.34375,10.3337 7.34375,17.34375 0,9.55043 -5.64536,17.38913 -12.5625,23.03125 -6.91714,5.64212 -15.71073,10.02482 -26.25,13.90625 -21.07853,7.76286 -49.28762,13.2338 -81.8125,15.9375 -3.15324,0.40109 -6.46668,-0.53154 -8.9375,-2.53125 -2.47083,-1.99971 -4.07873,-5.05117 -4.34375,-8.21875 -0.26501,-3.16759 0.83331,-6.39877 2.9375,-8.78125 2.10419,-2.38248 5.19894,-3.87155 8.375,-4 30.98403,-2.57562 57.67572,-7.95209 75.625,-14.5625 8.97464,-3.3052 15.71977,-7.00456 19.46875,-10.0625 3.56058,-2.90427 3.7917,-4.3167 3.8125,-4.59375 -0.13816,-0.27067 -0.4883,-0.86236 -1.28125,-1.75 -1.5859,-1.77528 -4.71318,-4.30096 -9.03125,-6.8125 -5.47167,-3.18252 -12.76929,-6.38533 -21.15625,-9.25 0.0799,0.73718 0.17154,1.44665 0.25,2.1875 0.45225,3.16535 -0.44093,6.50905 -2.40625,9.03125 -1.96532,2.5222 -4.97637,4.19609 -8.15625,4.53125 -3.17988,0.33517 -6.48952,-0.69297 -8.9375,-2.75 -2.44798,-2.05702 -4.00113,-5.12242 -4.21875,-8.3125 C 379.30351,270.64202 342.95791,199.67436 311.15625,160.125 295.25542,140.35032 285.0086,128.61543 272.3894,115.87685 260.3049,103.67803 254.20874,99.68965 260.0991,95.22573 288.40552,73.774142 334.62833,69.557827 334.62833,69.557827 Z"
     id="rect3039"
     inkscape:connector-curvature="0"
     sodipodi:nodetypes="ccccsssccccsccsssccsscscssscssssccssssssssssccssssscssscsscssccssscsssc" />
  <path
     style="color:#000000;fill:#ffffff;fill-opacity:1;fill-rule:nonzero;stroke:none;stroke-width:31.39999962;marker:none;visibility:visible;display:inline;overflow:visible;enable-background:accumulate"
     d="m 551.04738,460.76234 c 7.70579,10.41533 5.12443,25.82904 -1.0434,35.12213 -8.21804,12.38213 -27.87445,24.438 -70.24141,33.8867 -75.50433,16.83902 -189.55505,10.12802 -194.15264,-2.26917 -1.08937,-2.93745 96.34185,-2.47263 161.75018,-16.89246 60.12404,-13.25486 91.85682,-44.63047 103.68727,-49.8472 z"
     id="path3835"
     inkscape:connector-curvature="0"
     sodipodi:nodetypes="cssssc" />
  <path
     style="color:#000000;fill:#ffffff;fill-opacity:1;fill-rule:nonzero;stroke:none;stroke-width:31.39999962;marker:none;visibility:visible;display:inline;overflow:visible;enable-background:accumulate"
     d="m 110.18483,492.47142 c 80.32393,20.37914 -7.50559,31.49066 -54.001468,5.44867 -14.420533,-8.07684 -33.563807,-30.68063 -22.228721,-54.66068 16.695822,24.56562 56.572875,44.22472 76.230189,49.21201 z"
     id="path3837"
     inkscape:connector-curvature="0"
     sodipodi:nodetypes="sscs" />
</svg>

<svg width="580" height="580" viewBox="0 0 580 580" fill="none" xmlns="http://www.w3.org/2000/svg">
<g clip-path="url(#clip0)">
<path d="M66.275 1.76802C24.94 1.76802 1.704 23.139 1.704 66.804V516.927C1.704 557.771 22.599 579.156 63.896 579.156H515.92C557.227 579.156 578.149 558.841 578.149 516.927V66.804C578.149 24.203 557.227 1.76802 514.628 1.76802C514.624 1.76802 66.133 1.62502 66.275 1.76802Z" fill="#111111" stroke="#EEEEEE" stroke-width="3.408"/>
<path d="M334.628 69.5579L331.417 58.7094C331.417 58.7094 202.271 68.1394 179.284 76.6411C266.964 118.188 325.984 318.411 330.094 414.25C330.241 417.649 328.987 421.086 326.688 423.594C324.388 426.102 321.056 427.634 317.656 427.781C314.257 427.929 310.82 426.706 308.312 424.406C305.805 422.107 304.272 418.774 304.125 415.375C297.508 249.958 229.177 143.309 167.105 79.6519C147.736 82.7578 57.1476 94.0198 31.4062 103.625L28.4375 118.688C28.6858 120.922 127.064 117.033 139.516 119.203C143.982 119.982 147.059 122.543 148.062 123.531C148.062 123.531 252.383 226.974 237.219 411.469C237.034 414.633 235.517 417.702 233.125 419.781C230.733 421.861 227.503 422.914 224.344 422.656C221.184 422.399 218.149 420.846 216.125 418.406C214.101 415.967 213.107 412.684 213.438 409.531C213.934 403.49 214.289 397.561 214.531 391.719C195.6 394.909 182.255 398.908 174.344 403C164.972 407.847 164.031 410.487 164.031 414.156C164.031 414.296 164.026 415.38 166.812 417.938C169.599 420.496 174.821 423.747 181.969 426.781C196.265 432.85 218.043 438.22 243.906 441.5C247.045 441.802 250.031 443.412 252 445.875C253.969 448.338 254.896 451.622 254.5 454.75C254.104 457.878 252.395 460.825 249.875 462.719C247.355 464.613 244.052 465.427 240.938 464.938C213.592 461.47 190.252 455.992 172.75 448.563C163.999 444.848 156.656 440.679 150.844 435.344C145.031 430.008 140.406 422.693 140.406 414.156C140.406 400.893 149.777 389.129 163.5 382.031C175.871 375.633 192.466 371.159 214.844 367.719C214.742 361.063 214.496 354.531 214.094 348.156C168.202 353.417 132.469 363.178 108.656 375.438C82.8375 388.73 72.1875 403.394 72.1875 418.469C72.1875 426.424 76.6527 434.998 87.5312 444.219C98.4098 453.44 115.271 462.512 136.594 470.156C179.239 485.446 239.523 495.219 306.094 495.219C372.665 495.219 432.917 485.446 475.562 470.156C496.885 462.512 513.746 453.44 524.625 444.219C535.504 434.998 539.969 426.424 539.969 418.469C539.969 413.212 537.393 407.075 530.875 400.031C524.357 392.987 514.131 385.515 501.062 378.594C477.806 366.278 445.725 355.595 410.031 348.594C411.237 355.779 412.351 363.17 413.406 370.75C427.22 374.633 439.646 379.508 449.625 385.313C455.392 388.667 460.382 392.307 464.406 396.813C468.431 401.318 471.75 407.146 471.75 414.156C471.75 423.707 466.105 431.545 459.188 437.188C452.27 442.83 443.477 447.212 432.938 451.094C411.859 458.857 383.65 464.328 351.125 467.031C347.972 467.432 344.658 466.5 342.188 464.5C339.717 462.5 338.109 459.449 337.844 456.281C337.579 453.114 338.677 449.883 340.781 447.5C342.885 445.118 345.98 443.629 349.156 443.5C380.14 440.924 406.832 435.548 424.781 428.938C433.756 425.632 440.501 421.933 444.25 418.875C447.811 415.971 448.042 414.558 448.062 414.281C447.924 414.011 447.574 413.419 446.781 412.531C445.195 410.756 442.068 408.23 437.75 405.719C432.278 402.536 424.981 399.333 416.594 396.469C416.674 397.206 416.765 397.915 416.844 398.656C417.296 401.822 416.403 405.165 414.438 407.688C412.472 410.21 409.461 411.884 406.281 412.219C403.101 412.554 399.792 411.526 397.344 409.469C394.896 407.412 393.343 404.346 393.125 401.156C379.304 270.642 342.958 199.674 311.156 160.125C295.255 140.35 285.009 128.615 272.389 115.877C260.305 103.678 254.209 99.6897 260.099 95.2258C288.406 73.7742 334.628 69.5579 334.628 69.5579Z" fill="white"/>
<path d="M551.047 460.762C558.753 471.178 556.172 486.591 550.004 495.884C541.786 508.267 522.13 520.322 479.763 529.771C404.258 546.61 290.208 539.899 285.61 527.502C284.521 524.565 381.952 525.029 447.36 510.61C507.484 497.355 539.217 465.979 551.047 460.762V460.762Z" fill="white"/>
<path d="M110.185 492.471C190.509 512.851 102.679 523.962 56.1834 497.92C41.7628 489.843 22.6195 467.239 33.9546 443.259C50.6505 467.825 90.5275 487.484 110.185 492.471Z" fill="white"/>
</g>
<defs>
<clipPath id="clip0">
<path d="M0 0H580V580H0V0Z" fill="white"/>
</clipPath>
</defs>
</svg>
